svgs/obsidian.svg

<svg width="192" height="192" viewBox="0 0 192 192" fill="none" xmlns="http://www.w3.org/2000/svg">
<path fill-rule="evenodd" clip-rule="evenodd" d="M113.267 17.0734C115.956 15.7265 119.228 16.5788 120.917 19.067L148.282 59.3561C149.168 60.6609 149.505 62.2623 149.22 63.8135L131.47 160.237C131.357 160.849 131.15 161.439 130.856 161.987L125.241 172.452C123.865 175.017 120.847 176.224 118.082 175.316L77.1163 161.861C75.4956 161.329 74.1782 160.132 73.4933 158.569L43.896 91.0433C43.1978 89.4504 43.2252 87.6329 43.971 86.0617L64.4328 42.9548C65.007 41.7453 65.9691 40.7626 67.1663 40.163L113.267 17.0734ZM66.4625 66.6629L55.9858 88.7339L70.7099 122.326L67.5762 75.5238L66.4625 66.6629ZM81.5731 104.946L84.705 151.723L108.3 159.473L81.5731 104.946ZM120.024 156.127L136.661 65.7517L112.519 51.4134L81.0547 76.6248L120.024 156.127ZM78.1671 63.5615L106.508 40.8528L107.902 33.1813L76.3357 48.9915L78.1671 63.5615ZM119.233 37.9446L118.659 41.1032L123.217 43.8105L119.233 37.9446Z" fill="black"/>
</svg>

<svg width="192" height="192" fill="none" xmlns="http://www.w3.org/2000/svg"><path fill-rule="evenodd" clip-rule="evenodd" d="M113.267 17.073a6 6 0 0 1 7.65 1.994l27.365 40.29a6.004 6.004 0 0 1 .938 4.456l-17.75 96.424a6.008 6.008 0 0 1-.614 1.75l-5.615 10.465a6 6 0 0 1-7.159 2.864l-40.966-13.455a5.998 5.998 0 0 1-3.623-3.292L43.896 91.043a6 6 0 0 1 .075-4.981l20.462-43.107a6 6 0 0 1 2.733-2.792l46.101-23.09Zm-46.804 49.59-10.477 22.07 14.724 33.593-3.134-46.802-1.113-8.861Zm15.11 38.283 3.132 46.777 23.595 7.75-26.727-54.527Zm38.451 51.181 16.637-90.375-24.142-14.339-31.464 25.212 38.969 79.502ZM78.167 63.561l28.341-22.708 1.394-7.672-31.566 15.81 1.831 14.57Zm41.066-25.616-.574 3.158 4.558 2.707-3.984-5.865Z" fill="#000"/></svg>
